X:49
T:Sonata per cembalo K.1 in D minor
C:Scarlatti, D.
M:3/8
L:1/16
Q:3/8=120
K:Dmin
|:A4|d8|d4 efed|c4 defg|a4 A4|
d4 cBAG|F4 GABC|d4 c2B2|A8:|

